X:20
T: Ach Elslein
N: L0083A
O: Europa, Mitteleuropa, Deutschland
N: Joh. Ott 1534 No. 37
R: Lied
M: 3/4
L: 1/8
K: G
G2 | G4_B2 | A4G2 | A3_Bc2 | d4
d2 | c4A2 | _B2G4 | =F4
F2 | A4_B2 | c4_B2 | G3A_B2 | A4
G2 | =F2D4 | G4F2 | G4
G2 | =F2D4 | G4F2 | G6

